_includes/icons/color-color-wheel.svg

<svg fill="#666" height="50" viewBox="0 0 48 48" width="50" xmlns="http://www.w3.org/2000/svg"><path d="m24 4v20l-10-17.319z" fill="#e91e63"/><path d="m34 6.681 7.319 7.319-17.319 10z" fill="#ff5722"/><path d="m24 4 10 2.681-10 17.319z" fill="#f44336"/><path d="m24 44v-20l10 17.319z" fill="#8bc34a"/><path d="m14 41.319-7.319-7.319 17.319-10z" fill="#03a9f4"/><path d="m24 44-10-2.681 10-17.319z" fill="#4caf50"/><path d="m44 24h-20l17.319-10z" fill="#ff9800"/><path d="m41.319 34-7.319 7.319-10-17.319z" fill="#ffeb3b"/><path d="m44 24-2.681 10-17.319-10z" fill="#ffc107"/><path d="m4 24h20l-17.319 10z" fill="#3f51b5"/><path d="m6.681 14 7.319-7.319 10 17.319z" fill="#9c27b0"/><path d="m4 24 2.681-10 17.319 10z" fill="#673ab7"/></svg>

<svg xmlns="http://www.w3.org/2000/svg" viewBox="0 0 48 48" width="50" height="50" fill="#666"><path d="M24,4v20L14,6.681L24,4z" fill="#e91e63"/><path d="M34,6.681L41.319,14L24,24L34,6.681z" fill="#ff5722"/><path d="M24,4l10,2.681L24,24V4z" fill="#f44336"/><path d="M24,44V24l10,17.319L24,44z" fill="#8bc34a"/><path d="M14,41.319L6.681,34L24,24L14,41.319z" fill="#03a9f4"/><path d="M24,44l-10-2.681L24,24V44z" fill="#4caf50"/><path d="M44,24H24l17.319-10L44,24z" fill="#ff9800"/><path d="M41.319,34L34,41.319L24,24L41.319,34z" fill="#ffeb3b"/><path d="M44,24l-2.681,10L24,24H44z" fill="#ffc107"/><path d="M4,24h20L6.681,34L4,24z" fill="#3f51b5"/><path d="M6.681,14L14,6.681L24,24L6.681,14z" fill="#9c27b0"/><path d="M4,24l2.681-10L24,24H4z" fill="#673ab7"/></svg>
